X:157
T:Danish Polka
C:Trad arr: Lester Bailey
M:2/4
R:
K:G
G2 B2 | B>A G>A | B2 d2 | d>B G>B |
A2 A>B | c>B (3AcA | G2 B2 | d2 B2 |
G2 B2 | B>A G>A | B2 d2 | d>B G>B |
A2 A>B | c>B (3AcA | G2 B2 | G2 z2 :||
c2 e2 | e>d c>e | B2 d2 | d>B G>B |
A2 A>B | c>B (3AcA | G2 B2 | d2 B2 |
c2 e2 | e>d c>e | B2 d2 | d>B G>B |
A2 A>B | c>B (3AcA | G2 B2 | G2 z2 :|
